X: 1
T: Andy de Jarlis
R: jig
S: Fiddle Hell Online 2022-3-26 handout for Fiddle Hell jam session
B: the Portland Collection 2 p.15
Z: 2022 John Chambers <jc:trillian.mit.edu>
M: 6/8
L: 1/8
K: E
z |\
"E"EGB EGB | EGB "A"c2B | "E"EGB EGB | "D"=DFA B2A |\
"E"EGB EGB | EGB "A"c2a | "B"gfe Bcd |"E"efe e2 :|
|: f |\
"E"g2g gfg | "A"aba c2e | "B"f3 f3 f2e | dcB dcB |\
"E"g2g gfg | "A"aba c2e | "B"f2e dcd | "E"efe e2 :|
